source/img/svg/icon_gift.svg

<svg width="78" height="81" viewBox="0 0 78 81" fill="none" xmlns="http://www.w3.org/2000/svg">
<path d="M64.0156 35.6323H14.031C12.2766 35.6323 10.8494 34.2141 10.8494 32.4707V22.9986C10.8494 21.2552 12.2766 19.8364 14.031 19.8364H64.0149C65.7687 19.8364 67.1953 21.2552 67.1953 22.9986V32.4713C67.1959 34.2141 65.7693 35.6323 64.0156 35.6323ZM14.031 22.2596C13.6276 22.2596 13.2869 22.5982 13.2869 22.9986V32.4713C13.2869 32.8784 13.6208 33.2097 14.031 33.2097H64.0149C64.4244 33.2097 64.7578 32.8784 64.7578 32.4713V22.9986C64.7578 22.5976 64.4171 22.2596 64.0149 22.2596H14.031Z" fill="white"/>
<path d="M57.0447 68.0818H20.999C17.6218 68.0818 14.8741 65.351 14.8741 61.9931V34.4208C14.8741 33.752 15.4201 33.2092 16.0929 33.2092C16.7656 33.2092 17.3116 33.752 17.3116 34.4208V61.9931C17.3116 64.0146 18.9661 65.6587 20.999 65.6587H57.0447C59.077 65.6587 60.7308 64.0146 60.7308 61.9931V34.4208C60.7308 33.752 61.2768 33.2092 61.9496 33.2092C62.6223 33.2092 63.1683 33.752 63.1683 34.4208V61.9931C63.1683 65.351 60.4213 68.0818 57.0447 68.0818Z" fill="white"/>
<path d="M39.0225 68.0818C38.3498 68.0818 37.8038 67.5397 37.8038 66.8703V34.4208C37.8038 33.752 38.3498 33.2092 39.0225 33.2092C39.6953 33.2092 40.2413 33.752 40.2413 34.4208V66.8697C40.2413 67.5397 39.6959 68.0818 39.0225 68.0818Z" fill="white"/>
<path d="M23.8113 22.2554C19.9966 20.2005 18.5731 15.4439 20.6383 11.6511C22.7022 7.86009 27.4864 6.44437 31.303 8.49556C37.117 11.6263 40.2565 20.3605 40.3869 20.7306L38.0877 21.5345C38.0585 21.4521 35.1256 13.3097 30.1433 10.6267C27.5078 9.21038 24.2062 10.1881 22.7821 12.8045C21.3567 15.4233 22.339 18.7067 24.9734 20.1248L23.8113 22.2554Z" fill="white"/>
<path d="M54.2313 22.2553L53.071 20.1242C54.3477 19.4366 55.2782 18.2971 55.6926 16.9153C56.1063 15.5329 55.9534 14.073 55.2617 12.8051C54.5719 11.536 53.4263 10.6115 52.0363 10.2002C50.6457 9.78889 49.1783 9.94034 47.9023 10.6267C42.9201 13.3091 39.9871 21.4515 39.9579 21.5338L37.6587 20.73C37.7891 20.3598 40.928 11.6256 46.7421 8.49554C48.5897 7.50084 50.7182 7.28155 52.7316 7.87764C54.7468 8.47313 56.4061 9.81373 57.4061 11.6511C58.4073 13.4878 58.6285 15.6026 58.0289 17.6059C57.4287 19.6087 56.0801 21.2594 54.2313 22.2553Z" fill="white"/>
<path d="M61.9496 51.8565H16.0929C15.4201 51.8565 14.8741 51.3139 14.8741 50.6454C14.8741 49.9769 15.4201 49.4343 16.0929 49.4343H61.9496C62.6223 49.4343 63.1683 49.9769 63.1683 50.6454C63.1683 51.3139 62.6229 51.8565 61.9496 51.8565Z" fill="white"/>
</svg>

<svg xmlns="http://www.w3.org/2000/svg" width="78" height="81" fill="none" viewBox="0 0 78 81"><path fill="#fff" d="M64.016 35.632H14.03c-1.754 0-3.182-1.418-3.182-3.161v-9.472c0-1.744 1.428-3.163 3.182-3.163h49.984c1.754 0 3.18 1.42 3.18 3.163v9.472c0 1.743-1.426 3.161-3.18 3.161ZM14.03 22.26a.752.752 0 0 0-.744.739v9.472c0 .407.334.739.744.739h49.984c.41 0 .743-.332.743-.739V23a.75.75 0 0 0-.743-.74H14.03Z"/><path fill="#fff" d="M57.045 68.082H20.999c-3.377 0-6.125-2.731-6.125-6.089V34.421c0-.669.546-1.212 1.219-1.212s1.219.543 1.219 1.212v27.572c0 2.022 1.654 3.666 3.687 3.666h36.046c2.032 0 3.686-1.644 3.686-3.666V34.421c0-.669.546-1.212 1.219-1.212.672 0 1.218.543 1.218 1.212v27.572c0 3.358-2.747 6.089-6.123 6.089Z"/><path fill="#fff" d="M39.023 68.082a1.215 1.215 0 0 1-1.22-1.212V34.42c0-.668.547-1.21 1.22-1.21.672 0 1.218.542 1.218 1.21v32.45c0 .67-.545 1.212-1.218 1.212ZM23.811 22.255c-3.814-2.054-5.238-6.811-3.173-10.604 2.064-3.79 6.848-5.207 10.665-3.155 5.814 3.13 8.954 11.864 9.084 12.235l-2.3.803c-.029-.082-2.961-8.224-7.944-10.907-2.635-1.417-5.937-.439-7.36 2.178-1.426 2.618-.444 5.902 2.19 7.32l-1.162 2.13Z"/><path fill="#fff" d="m54.231 22.255-1.16-2.13a5.378 5.378 0 0 0 2.622-3.21 5.331 5.331 0 0 0-.431-4.11 5.382 5.382 0 0 0-3.226-2.605 5.424 5.424 0 0 0-4.134.427c-4.982 2.682-7.915 10.824-7.944 10.907l-2.3-.804c.131-.37 3.27-9.104 9.084-12.234a7.856 7.856 0 0 1 5.99-.618 7.8 7.8 0 0 1 4.674 3.773 7.726 7.726 0 0 1 .623 5.955 7.79 7.79 0 0 1-3.798 4.65ZM61.95 51.856H16.093a1.215 1.215 0 0 1-1.219-1.21c0-.67.546-1.212 1.219-1.212H61.95c.672 0 1.218.543 1.218 1.211 0 .669-.545 1.211-1.218 1.211Z"/></svg>
